X: 16837
T: Harvest Home, The
R: hornpipe
M: 4/4
K: Dmajor
|:A>G|F>AD>A F>AD>A|d>ef>e d>cB>A|e>Af>A g>Af>A|e>dc>B (3ABA (3GFE|
D>AF>A D>AF>A|d>ef>e d>cB>A|e>Af>A g>ec>e|d2 f2 d2:|
|:c>d|e>AA>A f>AA>A|g>Af>A e>AA>A|e>Af>A g>Af>A|e>dc>B (3ABA (3GFE|
D>AF>A D>AF>A|d>ef>e d>cB>A|e>Af>A g>ec>e|d2 f2 d2:|

